X:1
T:Title
%%score [ ( 1 2 ) ( 3 4 ) ]
L:1/8
Q:1/4=120
M:4/4
K:G
V:1 treble nm="Midi_74"
V:2 treble 
V:3 bass nm="Midi_74"
V:4 bass 
V:1
 G8 | D4 B4 | A8 || c8 | B4 G4 |"^Jonathan Battishill\n(1738-1801)" A4 F4 | G8 |] %7
V:2
 D8 | D4 D4 | D8 || E8 | ^D4 E4 | E4 D4 | D8 |] %7
V:3
 B,8 | G,4 G,4 | F,8 || A,8 | F,4 G,2 B,2 | C4 A,4 | B,8 |] %7
V:4
 G,,8 | B,,4 G,,4 | D,8 || A,,8 | B,,4 E,4 | C,4 D,4 | G,8 |] %7

